X: 1672
T: Anon
R: slide
M: 12/8
K: Adorian
|:E2A AGA|BAB G2D|E2A AGA|Bcd e2z|
E2A AGA|BAB G2A|BAB d2B|A3A2z:|
|:a2g efg|d2 B G2 z|a2g efg|a3a2 b|
a2g efg|d2B G2A|BAB d2B|A3A2 z:|

